!!!COM: Music21
!!!OTL: Valse dos Queixas
!!!OMV: pezas_valses_valse-dos-queixas_valse-dos-queixas-partitura.musicxml
**kern
*I"Gaita
*I'Bag
*clefG^2
*k[b-e-a-]
*M3/4
*MM200
=1
!LO:TX:a:t=[quarter]=200
4r
4een
4ff
=||
[2.gg
=
4gg]
4een
4cc
=
[2.aa-
=
4aa-]
4gg
4ff
=
[2.ccc
=
4ccc]
4bb-
4ccc
=
[2.ddd-X
=
4ddd-]
4ccc
4bb-
=
[2.ccc
=
4ccc]
4bb-
4aa-
=
[2.gg
=
4gg]
4aa-
4gg
!!linebreak:original
=
[2.ff
=
4ff]
8ggL
8ffJ
8ee-L
8dd-XJ
=
[2.cc
=
4cc]
4een
4ff
=
[2.gg
=
4gg]
4een
4cc
=
[2.aa-
=
4aa-]
4gg
4ff
=
[2.ccc
=
4ccc]
4bb-
4ccc
=
[2.ddd-X
=
4ddd-]
4ccc
4bb-
=
[2.ccc
!!linebreak:original
=
4ccc]
4bb-
4aa-
=
[2.gg
=
4gg]
4aa-
4gg
=
[2.ff
=
2.ff_
=
2.ff_
=
2ff]
4gg
=||
8ccL
8ddJ
8eenL
8ffJ
8ggL
8aa-J
=
4ccc
4ccc
4ccc
=
4ccc
4ccc
4ccc
=
4ccc
4.bb-
8aa-
=
2.bb-
!!linebreak:original
=
4aa-
4aa-
4aa-
=
4aa-
4aa-
4aa-
=
4aa-
4.gg
8ff
=
2.gg
=
4ff
4ff
4ff
=
4ff
4ff
4ff
=
4ff
4ee-
4dd-X
=
2cc
4gg
=
4aa-
4ff
4dd
=
2ee-
4dd-X
=
[2.cc
=
2.cc_
=
2.cc_
!!linebreak:original
=
2.cc_
=
2.cc]
=||
8ccL
8ddJ
8eenL
8ffJ
8ggL
8aa-J
=
4ccc
4ccc
4ccc
=
4ccc
4ccc
4ccc
=
4ccc
4.bb-
8aa-
=
2.bb-
!!linebreak:original
=
4aa-
4aa-
4aa-
=
4aa-
4aa-
4aa-
=
4aa-
4.gg
8ff
=
2.gg
=
4ff
4ff
4ff
=
4ff
4ff
4ff
=
4ff
4ee-
4dd-X
=
2cc
4gg
=
4aa-
4ff
4dd
=
2ee-
4dd-X
=
[2.cc
=
2.cc_
=
2.cc_
!!linebreak:original
=
2.cc_
=
2.cc]
=||
4ff
4ee-
4ff
=
2bb-
4aa-
=
2aa-
4gg
=
2gg
4gg
=
4gg
4ff
4gg
=
2ccc
4ddd-X
=
2bb-
4aa-
=
2ff
4ff
=
4ff
4ee-
4ff
=
2bb-
4aa-
=
2aa-
4gg
=
2cc
4cc
!!linebreak:original
=
4cc
4bn
4cc
=
2dd-X
4cc
=
2aa-
4gg
=
2ff
4ff
=||
4ff
4ee-
4ff
=
2bb-
4aa-
=
2aa-
4gg
=
2gg
4gg
=
4gg
4ff
4gg
=
2ccc
4ddd-X
=
2bb-
4aa-
=
2ff
4ff
=
4ff
4ee-
4ff
!!linebreak:original
=
2bb-
4aa-
=
2aa-
4gg
=
2cc
4cc
!!linebreak:original
=
4cc
4bn
4cc
=
2dd-X
4cc
=
2aa-
4gg
=
[2.ff
=
2.ff_
=
2.ff_
=
4ff]
8ggL
8ffJ
8ee-L
8dd-XJ
=
[2.cc
=
4cc]
4een
4ff
==
*-
